groups/amino_sidechains/methionine.svg

<svg height="256" viewBox="0 0 256 256" width="256" xmlns="http://www.w3.org/2000/svg"><path d="m0 0h256v256h-256z" fill="#fff"/><g fill="none" stroke-width="2"><path d="m230 131.5-44.2-25.6" stroke="#000"/><path d="m185.8 105.9-44.3 25.5" stroke="#000"/><path d="m141.5 131.4-33.4-19.3" stroke="#000"/><path d="m86.4 112.1-22.5 13" stroke="#000"/><path d="m188 107.2-2.2-1.3-2.2 1.3" stroke="#000" stroke-miterlimit="10"/><path d="m143.7 130.2-2.2 1.2-1.7-.9" stroke="#000" stroke-miterlimit="10"/><path d="m242.8 109.382c-1.659-.959-2.938 1.252-1.28 2.212 1.659.96.38 3.172-1.279 2.212s-2.939 1.252-1.28 2.212c1.659.959.379 3.171-1.28 2.211-1.658-.959-2.938 1.252-1.279 2.212s.379 3.172-1.28 2.212-2.938 1.252-1.279 2.212c1.658.959.379 3.171-1.28 2.211-1.659-.959-2.939 1.253-1.28 2.212 1.659.96.379 3.172-1.279 2.212-1.659-.96-2.939 1.252-1.28 2.212 1.659.959.379 3.171-1.28 2.212-1.658-.96-2.938 1.252-1.279 2.211 1.659.96.379 3.172-1.28 2.212s-2.938 1.252-1.28 2.212c1.659.96.38 3.171-1.279 2.212-1.659-.96-2.939 1.252-1.28 2.211 1.659.96.379 3.172-1.279 2.212-1.659-.96-2.939 1.252-1.28 2.212s.379 3.171-1.28 2.212" stroke="#7f7f7f"/></g><text font-family="sans-serif" font-size="30" x="88.1" y="121.2">S</text><text font-family="sans-serif" font-size="30" x="12.8" y="146.7">H</text><text font-family="sans-serif" font-size="20" x="34" y="159">3</text><text font-family="sans-serif" font-size="30" x="43.8" y="146.7">C</text></svg>

<?xml version='1.0' encoding='iso-8859-1'?>
<svg version='1.1' baseProfile='full'
              xmlns='http://www.w3.org/2000/svg'
                      xmlns:rdkit='http://www.rdkit.org/xml'
                      xmlns:xlink='http://www.w3.org/1999/xlink'
                  xml:space='preserve'
width='256px' height='256px' viewBox='0 0 256 256'>
<!-- END OF HEADER -->
<rect style='opacity:1.0;fill:#FFFFFF;stroke:none' width='256.0' height='256.0' x='0.0' y='0.0'> </rect>
<path class='bond-0 atom-0 atom-1' d='M 230.0,131.5 L 185.8,105.9' style='fill:none;fill-rule:evenodd;stroke:#000000;stroke-width:2.0px;stroke-linecap:butt;stroke-linejoin:miter;stroke-opacity:1' />
<path class='bond-1 atom-1 atom-2' d='M 185.8,105.9 L 141.5,131.4' style='fill:none;fill-rule:evenodd;stroke:#000000;stroke-width:2.0px;stroke-linecap:butt;stroke-linejoin:miter;stroke-opacity:1' />
<path class='bond-2 atom-2 atom-3' d='M 141.5,131.4 L 108.1,112.1' style='fill:none;fill-rule:evenodd;stroke:#000000;stroke-width:2.0px;stroke-linecap:butt;stroke-linejoin:miter;stroke-opacity:1' />
<path class='bond-3 atom-3 atom-4' d='M 86.4,112.1 L 63.9,125.1' style='fill:none;fill-rule:evenodd;stroke:#000000;stroke-width:2.0px;stroke-linecap:butt;stroke-linejoin:miter;stroke-opacity:1' />
<path d='M 188.0,107.2 L 185.8,105.9 L 183.6,107.2' style='fill:none;stroke:#000000;stroke-width:2.0px;stroke-linecap:butt;stroke-linejoin:miter;stroke-miterlimit:10;stroke-opacity:1;' />
<path d='M 143.7,130.2 L 141.5,131.4 L 139.8,130.5' style='fill:none;stroke:#000000;stroke-width:2.0px;stroke-linecap:butt;stroke-linejoin:miter;stroke-miterlimit:10;stroke-opacity:1;' />
<path class='atom-1' d='M242.8,109.382 C241.141,108.423 239.862,110.634 241.52,111.594 C243.179,112.554 241.9,114.766 240.241,113.806 C238.582,112.846 237.302,115.058 238.961,116.018 C240.62,116.977 239.34,119.189 237.681,118.229 C236.023,117.27 234.743,119.481 236.402,120.441 C238.061,121.401 236.781,123.613 235.122,122.653 C233.463,121.693 232.184,123.905 233.843,124.865 C235.501,125.824 234.222,128.036 232.563,127.076 C230.904,126.117 229.624,128.329 231.283,129.288 C232.942,130.248 231.662,132.46 230.004,131.5 C228.345,130.54 227.065,132.752 228.724,133.712 C230.383,134.671 229.103,136.883 227.444,135.924 C225.786,134.964 224.506,137.176 226.165,138.135 C227.824,139.095 226.544,141.307 224.885,140.347 C223.226,139.387 221.947,141.599 223.605,142.559 C225.264,143.519 223.985,145.73 222.326,144.771 C220.667,143.811 219.387,146.023 221.046,146.982 C222.705,147.942 221.425,150.154 219.767,149.194 C218.108,148.234 216.828,150.446 218.487,151.406 C220.146,152.366 218.866,154.577 217.207,153.618' style='fill:none;stroke:#7F7F7F;stroke-width:2.0px;stroke-linecap:butt;stroke-linejoin:miter;stroke-opacity:1' />
<text x='88.1' y='121.2' class='atom-3' style='font-size:30px;font-style:normal;font-weight:normal;fill-opacity:1;stroke:none;font-family:sans-serif;text-anchor:start;fill:#000000' >S</text>
<text x='12.8' y='146.7' class='atom-4' style='font-size:30px;font-style:normal;font-weight:normal;fill-opacity:1;stroke:none;font-family:sans-serif;text-anchor:start;fill:#000000' >H</text>
<text x='34.0' y='159.0' class='atom-4' style='font-size:20px;font-style:normal;font-weight:normal;fill-opacity:1;stroke:none;font-family:sans-serif;text-anchor:start;fill:#000000' >3</text>
<text x='43.8' y='146.7' class='atom-4' style='font-size:30px;font-style:normal;font-weight:normal;fill-opacity:1;stroke:none;font-family:sans-serif;text-anchor:start;fill:#000000' >C</text>
</svg>
